X: 123
T: Blackberry Blossom
T: Reel, G
L: 1/16
M: C|
K: G
|: g2e2| d2B2A2c2 B2G2G2A2| B2c2B2A2 B4g2e2| d2B2A2c2 B2G2G2B2| A2a2a2g2 a4:| 
|: e2f2| g2f2g2a2 b2g2a2f2| g2f2g2a2 b2g2e2f2| g2f2g2a2 b2g2a2g2| e2a2a2g2 a4e2f2| 
g2f2g2a2 b2g2a2f2| g2f2g2a2 b2g2e2g2| b2g2a2f2 g2e2f2d2| e2a2a2g2 a4|| 
D: Buddy MacMaster, Glencoe Hall, BM-91
